X:191
%%pagewidth 8in
%%vocalfont Baskerville10Pro 14
%%pos vol above
T:I have but a mark a year
M:C
L:1/8
K:G
%%score 1 2
V:1 clef-treble
V:2 clef-bass octave=-1
[V:1]G2|(Bc)d2 d2(cB) & D4D4|([FA]B)(AG) G3F &x4B,2x2|E2C2 (FG)A2 &x4C2x2|
w:Now all* my friends are* dead* and* gone, A-las! what will* be-
[V:2]z2|G,4B,4|D4E4|C4A,4|
[V:1][A,F]2D2 z2(ED)|(EF)G2G2(FE) &C4C4|(FG)A2 A2d2 &A,4D4|B3G E2[Fd]2 &D4x4|[DB]2G2z2||
w:tide me, For* I,* poor maid, am* left* a-lone, With-out a house to hide me.
[V:2]D4D,4|C4A,4|D4F4|G4c2D2|G4z2||
[V:1](Bc)|d2 (ed) dedc & G4G4|(d4B2) (dc) & G6x2|cBAG E2A2 &E4x4|(F2A2)z2(Bc)|
w:Yet* still I'll* be of merry* cheer,* And* have kind wel-come ev'ry-*where,* Though*
[V:2]GA|B2cB BcBA|(B4G2)z2|x4c4 & C8|[DA]4[CDF]4|
[V:1]d3d B2G2|E2A2 F2d2|(ed)(cB) A2D2 &x6D2|[CE]2[B,G]2z2||
w:I have but a mark a year, And that* my* mo-ther gave me.
[V:2][B,DG]4[EG]4|[Cc]4[DA]2[B,G]2|[CG]4F2x2 &x4D4|G,4z2||

